X:63
T:Jockey Lay Up In The Hay Loft
Z:Jack Campin, http://www.campin.me.uk/
S:Northumbrian Minstrelsy
M:9/8
L:1/8
K:G
GBG    GBG    F2D| GBG    G2B cAF |\
GBG    GBG    F2D|=FGA   =f2d cAF:| 
B/c/dB A/B/cA B2G| B/c/dB cAd cAF |\
B/c/dB A/B/cA B2G|=FGA   =f2d cAF:|

